img/arrow.svg

<svg fill="none" height="22" viewBox="0 0 22 22" width="22" xmlns="http://www.w3.org/2000/svg"><path d="m11.6512 12.2834c-.0852.0859-.1866.1541-.2983.2006-.1117.0466-.2315.0705-.3525.0705s-.2408-.0239-.3525-.0705c-.1117-.0465-.2131-.1147-.2983-.2006l-4.19836-4.20752c-.08522-.08592-.1866-.15411-.29831-.20065-.1117-.04654-.23152-.0705-.35253-.0705s-.24082.02396-.35253.0705c-.1117.04654-.21309.11473-.2983.20065-.17073.17175-.26656.40408-.26656.64625s.09583.4745.26656.64625l4.2075 4.20752c.51563.515 1.21463.8042 1.94333.8042.7288 0 1.4277-.2892 1.9433-.8042l4.2075-4.20752c.1694-.17074.2649-.40119.2659-.64167.0007-.12064-.0224-.24023-.0681-.35191-.0456-.11169-.1128-.21327-.1978-.29892-.0852-.08592-.1865-.15411-.2983-.20065-.1117-.04654-.2315-.0705-.3525-.0705s-.2408.02396-.3525.0705-.2131.11473-.2983.20065z" fill="#fd9222"/></svg>

<svg width="22" height="22" viewBox="0 0 22 22" fill="none" xmlns="http://www.w3.org/2000/svg">
<path d="M11.6512 12.2834C11.566 12.3693 11.4646 12.4375 11.3529 12.484C11.2412 12.5306 11.1214 12.5545 11.0004 12.5545C10.8794 12.5545 10.7596 12.5306 10.6479 12.484C10.5362 12.4375 10.4348 12.3693 10.3496 12.2834L6.15124 8.07588C6.06602 7.98996 5.96464 7.92177 5.85293 7.87523C5.74123 7.82869 5.62141 7.80473 5.5004 7.80473C5.37939 7.80473 5.25958 7.82869 5.14787 7.87523C5.03617 7.92177 4.93478 7.98996 4.84957 8.07588C4.67884 8.24763 4.58301 8.47996 4.58301 8.72213C4.58301 8.9643 4.67884 9.19663 4.84957 9.36838L9.05707 13.5759C9.5727 14.0909 10.2717 14.3801 11.0004 14.3801C11.7292 14.3801 12.4281 14.0909 12.9437 13.5759L17.1512 9.36838C17.3206 9.19764 17.4161 8.96719 17.4171 8.72671C17.4178 8.60607 17.3947 8.48648 17.349 8.3748C17.3034 8.26311 17.2362 8.16153 17.1512 8.07588C17.066 7.98996 16.9647 7.92177 16.8529 7.87523C16.7412 7.82869 16.6214 7.80473 16.5004 7.80473C16.3794 7.80473 16.2596 7.82869 16.1479 7.87523C16.0362 7.92177 15.9348 7.98996 15.8496 8.07588L11.6512 12.2834Z" fill="#FD9222"/>
</svg>
